icon/cg/code-slash.svg

<svg viewBox="0 0 24 24" fill="none" xmlns="http://www.w3.org/2000/svg" height="1em" width="1em">
  <path d="M13.325 3.05011L8.66741 20.4323L10.5993 20.9499L15.2568 3.56775L13.325 3.05011Z" fill="currentColor"/>
  <path d="M7.61197 18.3608L8.97136 16.9124L8.97086 16.8933L3.87657 12.1121L8.66699 7.00798L7.20868 5.63928L1.04956 12.2017L7.61197 18.3608Z" fill="currentColor"/>
  <path d="M16.388 18.3608L15.0286 16.9124L15.0291 16.8933L20.1234 12.1121L15.333 7.00798L16.7913 5.63928L22.9504 12.2017L16.388 18.3608Z" fill="currentColor"/>
</svg>

<svg width="24" height="24" fill="none" xmlns="http://www.w3.org/2000/svg"><path d="M13.325 3.05 8.667 20.432l1.932.518 4.658-17.382-1.932-.518ZM7.612 18.36l1.36-1.448-.001-.019-5.094-4.78 4.79-5.105-1.458-1.369-6.16 6.563 6.563 6.159ZM16.388 18.36l-1.36-1.448.001-.019 5.094-4.78-4.79-5.105 1.458-1.369 6.16 6.563-6.563 6.159Z" fill="currentColor"/></svg>
